X: 23085
T: Laughing Spoons, The
R: jig
M: 6/8
K: Gmajor
~B3 cBc|d2g fdc|1 Add cAG|FGA DGA:|2 Add cAF|AGF ~G2A||
Bcd gde|f2g a2g|fge dcA|ABG FGA|DGF GAB|cBc ABc|dge ~f2d|cAF G3:|

